X: 20
M:6/8
L:1/8
K:G
g2 g f2 g|e2 d B2 G|A2 G G2 F|G3-G2||
(3d/2e/2f/2|g2 g gfe|f2 f fed|ede gfe|d3 def|
g2 g f2 g|e2 d B2 G|A2 G G2 F|G3-G2||

